Sources/FrostedUI/Resources/Icons.xcassets/videoFilled20.imageset/video-filled-20.svg

<svg width="20" height="20" viewBox="0 0 20 20" fill="none" xmlns="http://www.w3.org/2000/svg" data-fui-icon="true">
  <path
    d="M20 14.833C20 16.5819 18.5819 18 16.833 18H3.16699C1.41809 18 0 16.5819 0 14.833V8.5H20V14.833ZM8.26367 10.0635C8.04487 9.93897 7.77268 10.0969 7.77246 10.3486V15.4668C7.77279 15.718 8.04388 15.8756 8.2627 15.752L12.7695 13.2061C12.9911 13.0805 12.9918 12.761 12.7705 12.6348L8.26367 10.0635ZM1.19727 7H0V5.16699C0 3.41809 1.41809 2 3.16699 2H6.19629L1.19727 7ZM16.833 2C16.9901 2 17.1449 2.01111 17.2959 2.0332L12.3301 7H8.94336L13.9434 2H16.833ZM18.7793 2.6709C19.5215 3.25044 20 4.15234 20 5.16699V7H14.4512L18.7793 2.6709ZM6.82227 7H3.31836L8.31836 2H11.8213L6.82227 7Z"
    fill="currentColor"
  />
</svg>

<svg xmlns="http://www.w3.org/2000/svg" width="20" height="20" fill="none" data-fui-icon="true" viewBox="0 0 20 20"><path fill="currentColor" d="M20 14.833A3.167 3.167 0 0 1 16.833 18H3.167A3.167 3.167 0 0 1 0 14.833V8.5h20zm-11.736-4.77a.33.33 0 0 0-.492.286v5.118c0 .251.272.409.49.285l4.508-2.546a.329.329 0 0 0 0-.571zM1.197 7H0V5.167A3.167 3.167 0 0 1 3.167 2h3.03zm15.636-5a3 3 0 0 1 .463.033L12.33 7H8.943l5-5zm1.946.67A3.16 3.16 0 0 1 20 5.168V7h-5.549zM6.822 7H3.318l5-5h3.503z"/></svg>
